cutejava-front/src/assets/icons/svg/authority.svg

<?xml version="1.0" standalone="no"?><!DOCTYPE svg PUBLIC "-//W3C//DTD SVG 1.1//EN" "http://www.w3.org/Graphics/SVG/1.1/DTD/svg11.dtd"><svg t="1608283203715" class="icon" viewBox="0 0 1024 1024" version="1.1" xmlns="http://www.w3.org/2000/svg" p-id="2568" xmlns:xlink="http://www.w3.org/1999/xlink" width="200" height="200"><defs><style type="text/css"></style></defs><path d="M512 64a256 256 0 0 1 256 256h32A160 160 0 0 1 960 480v320a160 160 0 0 1-160 160h-576A160 160 0 0 1 64 800v-320A160 160 0 0 1 224 320H256a256 256 0 0 1 256-256z m288 320h-576A96 96 0 0 0 128 480v320A96 96 0 0 0 224 896h576a96 96 0 0 0 96-96v-320A96 96 0 0 0 800 384zM512 487.424a32 32 0 0 1 31.488 26.24l0.512 5.76v241.216a32 32 0 0 1-63.488 5.76l-0.512-5.76v-241.28a32 32 0 0 1 32-32z m128 192a32 32 0 0 1 31.488 26.24l0.512 5.76v49.216a32 32 0 0 1-63.488 5.76l-0.512-5.76v-49.28a32 32 0 0 1 32-32z m-256-192a32 32 0 0 1 31.488 26.24l0.512 5.76v113.216a32 32 0 0 1-63.488 5.76l-0.512-5.76v-113.28a32 32 0 0 1 32-32zM512 128a192 192 0 0 0-192 192h384a192 192 0 0 0-180.736-191.68z" p-id="2569"></path></svg>

<svg class="icon" viewBox="0 0 1024 1024" xmlns="http://www.w3.org/2000/svg" width="200" height="200"><defs><style/></defs><path d="M512 64a256 256 0 0 1 256 256h32a160 160 0 0 1 160 160v320a160 160 0 0 1-160 160H224A160 160 0 0 1 64 800V480a160 160 0 0 1 160-160h32A256 256 0 0 1 512 64zm288 320H224a96 96 0 0 0-96 96v320a96 96 0 0 0 96 96h576a96 96 0 0 0 96-96V480a96 96 0 0 0-96-96zM512 487.424a32 32 0 0 1 31.488 26.24l.512 5.76V760.64a32 32 0 0 1-63.488 5.76l-.512-5.76V519.36a32 32 0 0 1 32-32zm128 192a32 32 0 0 1 31.488 26.24l.512 5.76v49.216a32 32 0 0 1-63.488 5.76l-.512-5.76v-49.28a32 32 0 0 1 32-32zm-256-192a32 32 0 0 1 31.488 26.24l.512 5.76V632.64a32 32 0 0 1-63.488 5.76l-.512-5.76V519.36a32 32 0 0 1 32-32zM512 128a192 192 0 0 0-192 192h384a192 192 0 0 0-180.736-191.68z"/></svg>
